logos/microsoft-teams.svg

<?xml version="1.0" encoding="UTF-8"?>
<svg width="256px" height="239px" viewBox="0 0 256 239" version="1.1" xmlns="http://www.w3.org/2000/svg" xmlns:xlink="http://www.w3.org/1999/xlink" preserveAspectRatio="xMidYMid">
    <title>Teams</title>
    <defs>
        <linearGradient x1="17.372046%" y1="-6.51032331%" x2="82.6280767%" y2="106.510437%" id="Teams-linearGradient-1">
            <stop stop-color="#5A62C3" offset="0%"></stop>
            <stop stop-color="#4D55BD" offset="50%"></stop>
            <stop stop-color="#3940AB" offset="100%"></stop>
        </linearGradient>
    </defs>
    <g>
				<path d="M178.562984,89.3023389 L244.688409,89.3023389 C250.935667,89.3023389 256,94.3666717 256,100.61393 C256,100.61393 256,100.61393 256,100.61393 L256,160.8454 C256,183.805692 237.387095,202.418597 214.426804,202.418597 L214.426804,202.418597 L214.230281,202.418597 C191.269989,202.421813 172.654443,183.81155 172.651112,160.851258 C172.651112,160.849305 172.651112,160.847353 172.651112,160.845285 L172.651112,95.2142112 C172.651112,91.9491339 175.298022,89.3023389 178.562984,89.3023389 L178.562984,89.3023389 Z" fill="#5059C9"></path>
				<circle fill="#5059C9" cx="223.255847" cy="50.6046204" r="26.7907017"></circle>
				<circle fill="#7B83EB" cx="139.906959" cy="38.6977185" r="38.6977185"></circle>
				<path d="M191.505908,89.3023389 L82.3545595,89.3023389 C76.1817292,89.4551005 71.2986428,94.5778961 71.4418711,100.750956 L71.4418711,169.448288 C70.5798595,206.492276 99.8873366,237.23307 136.930291,238.139647 C173.973246,237.23307 203.280608,206.492276 202.418711,169.448288 L202.418711,100.750956 C202.56171,94.5778961 197.678739,89.4551005 191.505908,89.3023389 Z" fill="#7B83EB"></path>
				<path d="M142.883742,89.3023389 L142.883742,185.57026 C142.854109,189.98484 140.178944,193.950782 136.096765,195.631619 C134.797028,196.181446 133.400121,196.465146 131.988857,196.465146 L76.6809034,196.465146 C75.9069881,194.500494 75.1925694,192.535843 74.5971439,190.511695 C72.5131546,183.680267 71.4497964,176.578577 71.4417563,169.436343 L71.4417563,100.733038 C71.2986428,94.5698561 76.1736891,89.4551005 82.3366416,89.3023389 L142.883742,89.3023389 Z" fill="#000000" opacity="0.1"></path>
				<path d="M136.930291,89.3023389 L136.930291,191.523711 C136.930291,192.934975 136.646591,194.331882 136.096765,195.631619 C134.415928,199.713798 130.449985,202.389078 126.035406,202.418597 L79.4790817,202.418597 C78.4669502,200.453945 77.5144302,198.489294 76.6809034,196.465146 C75.8473766,194.440998 75.1925694,192.535843 74.5971439,190.511695 C72.5131546,183.680382 71.4497964,176.578577 71.4417563,169.436343 L71.4417563,100.733038 C71.2986428,94.5698561 76.1736891,89.4551005 82.3366416,89.3023389 L136.930291,89.3023389 Z" fill="#000000" opacity="0.2"></path>
				<path d="M136.930291,89.3023389 L136.930291,179.616809 C136.884922,185.615055 132.033652,190.466326 126.035406,190.511695 L74.5972587,190.511695 C72.5132695,183.680382 71.4499112,176.578577 71.4418711,169.436343 L71.4418711,100.733038 C71.2987577,94.5698561 76.173804,89.4551005 82.3367565,89.3023389 L136.930291,89.3023389 Z" fill="#000000" opacity="0.2"></path>
				<path d="M130.976725,89.3023389 L130.976725,179.616809 C130.931356,185.615055 126.080086,190.466326 120.08184,190.511695 L74.5972587,190.511695 C72.5132695,183.680382 71.4499112,176.578577 71.4418711,169.436343 L71.4418711,100.733038 C71.2987577,94.5698561 76.173804,89.4551005 82.3367565,89.3023389 L130.976725,89.3023389 Z" fill="#000000" opacity="0.2"></path>
				<path d="M142.883742,58.5228377 L142.883742,77.2763289 C141.871611,77.3358255 140.919091,77.395437 139.906959,77.395437 C138.894828,77.395437 137.942308,77.3359404 136.930176,77.2763289 C134.920615,77.1429784 132.927594,76.8241317 130.976725,76.3238089 C118.920852,73.4687758 108.960799,65.0138256 104.186024,53.5815182 C103.364442,51.6616615 102.726634,49.6681806 102.280869,47.6280672 L131.988742,47.6280672 C137.996406,47.6508092 142.860885,52.5151736 142.883742,58.5228377 Z" fill="#000000" opacity="0.1"></path>
				<path d="M136.930291,64.4762887 L136.930291,77.2763289 C134.92073,77.1429784 132.927709,76.8241317 130.97684,76.3238089 C118.920967,73.4687758 108.960914,65.0138256 104.186139,53.5815182 L126.035406,53.5815182 C132.042955,53.6042602 136.907435,58.4687395 136.930291,64.4762887 Z" fill="#000000" opacity="0.2"></path>
				<path d="M136.930291,64.4762887 L136.930291,77.2763289 C134.92073,77.1429784 132.927709,76.8241317 130.97684,76.3238089 C118.920967,73.4687758 108.960914,65.0138256 104.186139,53.5815182 L126.035406,53.5815182 C132.042955,53.6042602 136.907435,58.4687395 136.930291,64.4762887 Z" fill="#000000" opacity="0.2"></path>
				<path d="M130.976725,64.4762887 L130.976725,76.3236941 C118.920852,73.468661 108.960799,65.0137108 104.186024,53.5814034 L120.08184,53.5814034 C126.089504,53.6042602 130.953869,58.4687395 130.976725,64.4762887 Z" fill="#000000" opacity="0.2"></path>
				<path d="M10.9126884,53.5814034 L120.063922,53.5814034 C126.090883,53.5814034 130.976611,58.4672463 130.976611,64.4940918 L130.976611,173.645326 C130.976611,179.672286 126.090768,184.558014 120.063922,184.558014 L10.9126884,184.558014 C4.88572809,184.558014 0,179.672171 0,173.645326 L0,64.4940918 C0,58.4672463 4.88584295,53.5814034 10.9126884,53.5814034 Z" fill="url(#Teams-linearGradient-1)"></path>
				<polygon fill="#FFFFFF" points="94.2080524 95.1248514 72.3884185 95.1248514 72.3884185 154.540713 58.4871168 154.540713 58.4871168 95.1248514 36.768788 95.1248514 36.768788 83.5989345 94.2080524 83.5989345"></polygon>
    </g>
</svg>

<svg preserveAspectRatio="xMidYMid" viewBox="0 0 256 239" xmlns="http://www.w3.org/2000/svg">
  <defs>
    <linearGradient id="microsoft-teams_svg__a" x1="17.372%" x2="82.628%" y1="-6.51%" y2="106.51%">
      <stop offset="0%" stop-color="#5A62C3"/>
      <stop offset="50%" stop-color="#4D55BD"/>
      <stop offset="100%" stop-color="#3940AB"/>
    </linearGradient>
  </defs>
  <path fill="#5059C9" d="M178.563 89.302h66.125c6.248 0 11.312 5.065 11.312 11.312v60.231c0 22.96-18.613 41.574-41.573 41.574h-.197c-22.96.003-41.576-18.607-41.579-41.568V95.215a5.912 5.912 0 0 1 5.912-5.913Z"/>
  <circle cx="223.256" cy="50.605" r="26.791" fill="#5059C9"/>
  <circle cx="139.907" cy="38.698" r="38.698" fill="#7B83EB"/>
  <path fill="#7B83EB" d="M191.506 89.302H82.355c-6.173.153-11.056 5.276-10.913 11.449v68.697c-.862 37.044 28.445 67.785 65.488 68.692 37.043-.907 66.35-31.648 65.489-68.692v-68.697c.143-6.173-4.74-11.296-10.913-11.449Z"/>
  <path d="M142.884 89.302v96.268a10.96 10.96 0 0 1-6.787 10.062c-1.3.55-2.697.833-4.108.833H76.68c-.774-1.965-1.488-3.93-2.084-5.953a72.509 72.509 0 0 1-3.155-21.076v-68.703c-.143-6.163 4.732-11.278 10.895-11.43h60.547Z" opacity=".1"/>
  <path d="M136.93 89.302v102.222c0 1.411-.283 2.808-.833 4.108a10.96 10.96 0 0 1-10.062 6.787H79.48c-1.012-1.965-1.965-3.93-2.798-5.954a59.049 59.049 0 0 1-2.084-5.953 72.508 72.508 0 0 1-3.155-21.076v-68.703c-.143-6.163 4.732-11.278 10.895-11.43h54.593Z" opacity=".2"/>
  <path d="M136.93 89.302v90.315c-.045 5.998-4.896 10.85-10.895 10.895H74.597a72.508 72.508 0 0 1-3.155-21.076v-68.703c-.143-6.163 4.732-11.278 10.895-11.43h54.593Z" opacity=".2"/>
  <path d="M130.977 89.302v90.315c-.046 5.998-4.897 10.85-10.895 10.895H74.597a72.508 72.508 0 0 1-3.155-21.076v-68.703c-.143-6.163 4.732-11.278 10.895-11.43h48.64Z" opacity=".2"/>
  <path d="M142.884 58.523v18.753c-1.012.06-1.965.12-2.977.12-1.012 0-1.965-.06-2.977-.12a32.674 32.674 0 0 1-5.953-.952 38.698 38.698 0 0 1-26.791-22.742 33.082 33.082 0 0 1-1.905-5.954h29.708c6.007.023 10.872 4.887 10.895 10.895Z" opacity=".1"/>
  <path d="M136.93 64.476v12.8a32.674 32.674 0 0 1-5.953-.952 38.698 38.698 0 0 1-26.79-22.742h21.848c6.008.022 10.872 4.887 10.895 10.894Z" opacity=".2"/>
  <path d="M136.93 64.476v12.8a32.674 32.674 0 0 1-5.953-.952 38.698 38.698 0 0 1-26.79-22.742h21.848c6.008.022 10.872 4.887 10.895 10.894Z" opacity=".2"/>
  <path d="M130.977 64.476v11.848a38.698 38.698 0 0 1-26.791-22.743h15.896c6.008.023 10.872 4.888 10.895 10.895Z" opacity=".2"/>
  <path fill="url(#microsoft-teams_svg__a)" d="M10.913 53.581h109.15c6.028 0 10.914 4.886 10.914 10.913v109.151c0 6.027-4.886 10.913-10.913 10.913H10.913C4.886 184.558 0 179.672 0 173.645V64.495C0 58.466 4.886 53.58 10.913 53.58Z"/>
  <path fill="#FFF" d="M94.208 95.125h-21.82v59.416h-13.9V95.125h-21.72V83.599h57.44z"/>
</svg>
